!!!COM: Music21
!!!OTL: A Beira do Rio
!!!OMV: pezas_valses_a-beira-do-rio_a-beira-do-rio-partitura.musicxml
**kern
*part1
*staff1
*I"Bagpipes
*I'Bag
*clefG^2
*k[]
*M3/4
=1
!LO:TX:a:t=Presto
*MM184
!LO:TX:a:t=[quarter]=184
4r
4ee
4gg
=||
4ccc
4ccc
4ccc
=
4ccc
4bb
4aa
=
2gg
4ee
=
4cc
4gg
4gg
=
2aa
4ff
=
4dd
4ff
4ff
=
2gg
4ee
=
4cc
4ee
4gg
=
4ccc
4ccc
4ccc
=
4ccc
4bb
4aa
=
2gg
4ee
!!linebreak:original
=
4cc
4gg
4gg
!!linebreak:original
=
2aa
4gg
=
4ff
4ee
4dd
=
[2.cc
=
4cc]
4ee
4gg
=||
4ccc
4ccc
4ccc
=
4ccc
4bb
4aa
=
2gg
4ee
=
4cc
4gg
4gg
=
2aa
4ff
=
4dd
4ff
4ff
=
2gg
4ee
=
4cc
4ee
4gg
=
4ccc
4ccc
4ccc
!!linebreak:original
=
4ccc
4bb
4aa
=
2gg
4ee
=
4cc
4gg
4gg
!!linebreak:original
=
2aa
4gg
=
4ff
4ee
4dd
=
[2.cc
=
2.cc]
=||
2.gg
=
2.ee
=
4.ff
8gg
8ffL
8eeJ
=
2.dd
=
4ff
4gg
4aa
=
4.bb
8aa
8ggL
8ffJ
=
4gg
4aa
4gg
=
2.ee
=
2.gg
!!linebreak:original
=
2.ee
=
4.ff
8gg
8ffL
8eeJ
=
2.dd
=
4ff
4gg
4aa
=
4.bb
8aa
8ggL
8ffJ
=
[2.ee
=
2.ee]
=||
2.gg
=
2.ee
=
4.ff
8gg
8ffL
8eeJ
=
2.dd
=
4ff
4gg
4aa
!!pagebreak:original
=
4.bb
8aa
8ggL
8ffJ
=
4gg
4aa
4gg
=
2.ee
=
2.gg
!!linebreak:original
=
2.ee
=
4.ff
8gg
8ffL
8eeJ
=
2.dd
=
4ff
4gg
4aa
=
4.bb
8aa
8ggL
8ffJ
=
2.ee
=
4ee
4ee
4gg
==
*-
!!!system-decoration: s1,s2
